X: 32748
T: Polska Efter Carl Johan Holmgren
R: slip jig
M: 9/8
K: Gmajor
~G2B d2g g2b|afa g2d B2G|A2B cAc B2G|A2F G2B A2F|
G2B d2g g2b|afa g2d B2G|A2B cAc BGB|AFA G6:|
|:A2B c2B A2B|c3 e2c A2c|B2c d2B G2B|B2A FA2 D3|
A2B c2B A2B|c3 e2c A2c|B2c d2B G2B|AFA G6:|

